X:576
T:Peter's Maze
C:Colin Hume, 1985
L:1/4
M:2/2
S:Colin Hume's website,  colinhume.com  - chords can also be printed below the stave.
Q:1/2=110
K:G
P:A
|: D | "G"GB GD | "Dm"=FD- DD | "G"GB dG | "C7"_B3B |\
"G"=BB/d/-d/B/A | "Em"GG/B/-B/G/F | "C"EE/F/-"D7"F/E/F | "G"G3 :|
P:B
|: B | "Am"cA- Ac | "G"BG- GB | "Am"AE- EF/G/ | "D"A/B/A/F/- F/E/D |\
"C"EG- GE | "D"FA- AF | "Em"G/B/-B/G/ "D7"A/G/A | "G"G3 :|
P:C
|: d | "Dm"=ff fd | "Dm"=fg/f/- fd | "C"ee ed/e/- | "C"e3e |\
"Bb"d_B/d/- d/c/B | "F"cA/c/- c/_B/A | "Gm"_B/c/B/A/ G=F | "A7"A3 :|
P:D
d |: "D"dA AB | "D7"cd/c/- c/B/A | "G"Bc/B/- B/A/G | "C"c2 Bc |\
"G"d2 "Em"B2 | "C"cB "D7"AB | "G"G2- "C"G2- |1 "G"G/D/E/F/ G/A/B/c/ :|2 "G"G2 "D7"z |]

